!!!!SEGMENT: pl-sa--l-1643--063_anonim--attolite-portas.krn
!!!cenid: 16xx:1425
!!!COM: Anonim
!!!COM-rismID: pe30004985
!!!CDT:
!!!CNT:
!!!OTL: Attolite portas
!!!PDT:
!!!AGN: Sacred
!!!SMS-siglum: PL-SA
!!!SMS-shelfmark: L 1643
!!!SMS-shelfwork: 063 W
!!!SMS-variant:
!!!SMS-altvar:
!!!NIFC-rismSourceID: 1001063204
!!!NIFC-rismChildID: 1001063204
!!!NIFC-islandoraID:
!!!URL-pdf-islandora:
!!!URL-scan:
!!!ONB-nifc: UWAGA: 8 ksiąg. Primi chori: 1mus Cantus (x), C 2dus (112-114), C 3tius (x), Bassus (x); Secondi chori: Primus Cantus (x), C 2dus (x), Altus (x), Bassus (113-114). UWAGA: Nie dodawać pustych linii, chyba że w rękopisie pojawiają się dodatkowe oznaczenia dotyczące pełnej obsady (a 4, a 8 itp.)
!!!AIN: 2 empty
!!!key:
**kern	**text	**kern	**text
*part2	*part2	*part1	*part1
*staff2	*staff2	*staff1	*staff1
*Iempty	*	*Iempty	*
*I"Baſsus 2di Chori.	*	*I"Cantus 2dus Primi Chori.	*
*I'Coro 2 B	*	*I'Coro 1 S 2	*
*clefC3	*	*clefC1	*
*k[b-]	*	*k[b-]	*
*g:	*	*g:	*
*M2/2	*	*M2/2	*
*met(C|)	*	*met(C|)	*
=1	=1	=1	=1
00r	.	0r	.
=2-	=2-	=2-	=2-
.	.	.	.
=3-	=3-	=3-	=3-
.	.	1r	.
=4-	=4-	=4-	=4-
.	.	2r	.
.	.	2g/	At-
=5-	=5-	=5-	=5-
1G/	At-	2.dd\	-tol-
.	.	4dd\	-li-
=6-	=6-	=6-	=6-
2.g\	-tol-	2dd\	-te,
.	.	2g/	at-
4g\	-li-	.	.
=7-	=7-	=7-	=7-
2g\	-te	2.dd\	-tol-
2g\	Por-	.	.
.	.	4dd\	-li-
=8-	=8-	=8-	=8-
2g\	-tas	1dd\	-te
2r	.	.	.
=9-	=9-	=9-	=9-
00r	.	1b-\	por-
=10-	=10-	=10-	=10-
.	.	1cc\	.
=11-	=11-	=11-	=11-
.	.	2dd\,<	-taſ
.	.	2.dd\	-prin-
=12-	=12-	=12-	=12-
.	.	.	.
.	.	4dd\	-ci-
.	.	2dd\	-pes
=13-	=13-	=13-	=13-
1r	.	1b-\	ues-
=14-	=14-	=14-	=14-
4r	.	2cc\	-traſ
4f\	et	.	.
4f\	e-	2r	.
4f\	-le-	.	.
!!linebreak:original
=15-	=15-	=15-	=15-
4.B-/	-ua-	2r	.
8B-/	-mi-	.	.
2B-/	-ni	4r	.
.	.	4dd\	et
=16-	=16-	=16-	=16-
1r	.	4b-\	e-
.	.	4b-\	-le-
.	.	4.cc\	-ua-
*	*	*custos:cc	*
.	.	8cc\	-mi-
=17-	=17-	=17-	=17-
!	!	!LO:LB:g=original	!
4r	.	2cc\	-ni
4c/	et	.	.
4c/	e-	2r	.
4c/	-le-	.	.
=18-	=18-	=18-	=18-
4.f\	-ua-	2r	.
*custos:f	*	*	*
8f\	-mi-	.	.
!LO:LB:g=original	!	!	!
4f\	-ni	4r	.
4f\	et	4dd\	et
=19-	=19-	=19-	=19-
4f\	e-	4a\	e-
4f\	-le-	4a\	-le-
4.B-/	-ua-	4.b-\	-ua-
8B-/	-mi-	8b-\	-mi-
=20-	=20-	=20-	=20-
2f\	-ni	2a\,<	-ni
2r	.	2dd\	por-
=21-	=21-	=21-	=21-
1r	.	4cc\	-te
!	!	!	!LO:MO:mod=ae-
.	.	4b-\	e-
.	.	4b-\	-ter-
.	.	4a\	-na-
=22-	=22-	=22-	=22-
2r	.	2b-\,<	-les
2g\	Por-	2b-\	por-
=23-	=23-	=23-	=23-
2c/	-te	2cc\	-te
!	!	!	!LO:MO:mod=ae-
2g\	ae-	2b-\	e-
=24-	=24-	=24-	=24-
2.d\	-ter-	2.dd\	-ter-
4d\	-na-	4dd\	-na-
=25-	=25-	=25-	=25-
!	!	!LO:TX:t=P:problem=# below	!
!	!	!LO:N:acc=#	!
1g\	-les	1bn\	-les
=26-	=26-	=26-	=26-
0r	.	0r	.
=27-	=27-	=27-	=27-
.	.	.	.
=28-	=28-	=28-	=28-
1r	.	1r	.
=29-	=29-	=29-	=29-
2r	.	2r	.
2g\	et	2dd\	et
=30-	=30-	=30-	=30-
4c/	e-	4cc\	e-
*	*	*custos:b-	*
4f\	-le-	4cc\	-le-
!	!	!LO:LB:g=original	!
4.B-/	-ua-	4.b-y\	-ua-
8B-/	-mi-	8b-\	-mi-
=31-	=31-	=31-	=31-
4f\	-ni	4cc\	-ni
4B-/	por-	4dd\	por-
4e-X\	-te	4b-\	-te
!	!	!	!LO:MO:mod=ae-
4B-/	ae-	4b-\	e-
=32-	=32-	=32-	=32-
2.f\	-ter-	2.cc\	-ter-
4f\	-na-	4cc\	-na-
=33-	=33-	=33-	=33-
*custos:B-	*	*	*
2B-/	-les	2b-\	-les,
!LO:LB:g=original	!	!	!
2r	.	2r	.
=34-	=34-	=34-	=34-
0r	.	0r	.
=35-	=35-	=35-	=35-
.	.	.	.
=36-	=36-	=36-	=36-
1r	.	1r	.
=37-	=37-	=37-	=37-
2r	.	2r	.
2B-/	et	2dd\	et
=38-	=38-	=38-	=38-
4B-/	e-	4dd\	e-
4B-/	-le-	4b-\	-le-
4.f\	-ua-	4.cc\	-ua-
8f\	-mi-	8cc\	-mi-
=39-	=39-	=39-	=39-
4c/	-ni	4cc\	-ni
4g\	por-	4a\	por-
4c/	-te	4cc\	-te
!	!	!	!LO:MO:mod=ae-
4g\	ae-	4b-\	e-
=40-	=40-	=40-	=40-
2.d\	-ter-	2.dd\	-ter-
4d\	-na-	4dd\	-na-
=41-	=41-	=41-	=41-
!	!	!LO:TX:t=P:problem=# below	!
!	!	!LO:N:acc=#	!
2g\	-les	2bn\	-les,
2r	.	2r	.
=42-	=42-	=42-	=42-
00r	.	00r	.
=43-	=43-	=43-	=43-
.	.	.	.
=44-	=44-	=44-	=44-
.	.	.	.
=45-	=45-	=45-	=45-
.	.	.	.
=46-	=46-	=46-	=46-
*	*	*lig	*
4c/	rex	1cc\	Rex
4d\	.	.	.
4eny\	.	.	.
4f\	.	.	.
=47-	=47-	=47-	=47-
2.g\	glo-	1b-y\	.
8f\L	.	.	.
8e\J	.	.	.
*	*	*Xlig	*
=48-	=48-	=48-	=48-
*	*	*custos:a	*
!	!	!LO:TX:t=P:problem=kropka i custos przed łamaniem systemu	!
2.d\	.	2.a\	glo-
!	!	!LO:LB:g=original	!
4d\	-ri-	4a\	-ri-
=49-	=49-	=49-	=49-
!	!	!LO:TX:t=P:problem=# below	!
!	!	!LO:N:acc=#	!
!	!	!	!LO:MO:mod=-ae
1g\	-ae	1bn\	-e,
=50-	=50-	=50-	=50-
0r	.	0r	.
=51-	=51-	=51-	=51-
.	.	.	.
=52-	=52-	=52-	=52-
1r	.	1r	.
=53-	=53-	=53-	=53-
2r	.	2r	.
2.B-/	Do-	2.b-y\	Do-
=54-	=54-	=54-	=54-
.	.	.	.
4B-/	-mi-	4b-\	-mi-
*custos:c	*	*	*
2f\	-nus	2cc\	-nuſ
=55-	=55-	=55-	=55-
!LO:LB:g=original	!	!LO:TX:t=P:problem=niewyraźne źródło	!
4c/	for-	1cc\	for-
4d\	.	.	.
4e\	.	.	.
4f\	.	.	.
=56-	=56-	=56-	=56-
2g\	-tis	2b-\	-tis
2d\	et	2.dd\	et
=57-	=57-	=57-	=57-
!LO:TX:t=P:problem=niewyraźne źródło	!	!	!
1a\	Po-	.	.
.	.	8cc\L	.
.	.	8b-\J	.
.	.	2cc\	po-
=58-	=58-	=58-	=58-
2d\	-tens	2dd\	-tens,
2r	.	2r	.
=59-	=59-	=59-	=59-
0r	.	0r	.
=60-	=60-	=60-	=60-
.	.	.	.
=61-	=61-	=61-	=61-
2r	.	2r	.
2.B-/	Do-	2.b-\	do-
=62-	=62-	=62-	=62-
.	.	.	.
4B-/	-mi-	4b-\	-mi-
2f\	-nus	2cc\	-nuſ
=63-	=63-	=63-	=63-
1c/	Po-	1cc\	po-
=64-	=64-	=64-	=64-
2g\	-tens	2dd\	-tens
2g\	in	2b-\	in
=65-	=65-	=65-	=65-
2.d\	prae-	2.a\	prae-
4d\	-li-	4a\	-li-
=66-	=66-	=66-	=66-
2g\,<	-o	2b-\	-o,
2d\	in	2r	.
=67-	=67-	=67-	=67-
*	*	*custos:b-	*
2.A/	prae-	1r	.
4A/	-li-	.	.
=68-	=68-	=68-	=68-
!	!	!LO:PB:g=original	!
2d\,<	-o	2r	.
2g\	po-	2b-\	po-
=69-	=69-	=69-	=69-
*custos:g	*	*	*
2c/	-tens	2cc\	-tenſ
!	!	!LO:TX:t=P:♯below:problem=& after	!
!LO:PB:g=original	!	!LO:N:acc=#	!
2g\	in	2b\	in
=70-	=70-	=70-	=70-
2.d\	prae-	2.a\	pre-
4d\	-li-	4a\	-li-
=71-	=71-	=71-	=71-
1g\	-o	1b\;<	-o
=72-	=72-	=72||	=72||
00r	.	0r	.
=73-	=73-	=73-	=73-
.	.	.	.
=74-	=74-	=74-	=74-
.	.	2r	.
.	.	2g/	At-
=75-	=75-	=75-	=75-
.	.	2.dd\	-tol-
.	.	4dd\	-li-
=76-	=76-	=76-	=76-
1G/	At-	1dd\	-te,
=77-	=77-	=77-	=77-
2.g\	-tol-	2r	.
.	.	2g/	at-
4g\	-li-	.	.
=78-	=78-	=78-	=78-
2g\	-te	2.dd\	-tol-
2g\	Por-	.	.
.	.	4dd\	-li-
=79-	=79-	=79-	=79-
2g\	-tas	1dd\	-te
2r	.	.	.
=80-	=80-	=80-	=80-
*	*	*lig	*
00r	.	1b-\	por-
=81-	=81-	=81-	=81-
.	.	1cc\	.
*	*	*Xlig	*
=82-	=82-	=82-	=82-
.	.	2dd\,<	-tas
.	.	2.dd\	prin-
=83-	=83-	=83-	=83-
.	.	.	.
.	.	4dd\	-ci-
.	.	2dd\	-peſ
=84-	=84-	=84-	=84-
*	*	*custos:cc	*
1r	.	1b-\	ues-
=85-	=85-	=85-	=85-
!	!	!	!LO:MO:mod=tras
!	!	!LO:LB:g=original	!
4r	.	2cc\	-ſtras,
4f\	et	.	.
4f\	e-	2r	.
4f\	-le-	.	.
=86-	=86-	=86-	=86-
4.B-/	-ua-	2r	.
8B-/	-mi-	.	.
2B-/	-ni	4r	.
.	.	4dd\	et
=87-	=87-	=87-	=87-
1r	.	4b-\	e-
.	.	4b-\	-le-
.	.	4.cc\	-ua-
.	.	8cc\	-mi-
=88-	=88-	=88-	=88-
4r	.	2cc\	-ni
4c/	et	.	.
4c/	e-	2r	.
4c/	-le-	.	.
=89-	=89-	=89-	=89-
4.f\	-ua-	2r	.
8f\	-mi-	.	.
4f\	-ni	4r	.
4f\	et	4cc\	et
=90-	=90-	=90-	=90-
4f\	e-	4a\	e-
*custos:B-	*	*	*
4f\	-le-	4a\	-le-
!LO:LB:g=original	!	!	!
4.B-/	-ua-	4.b-\	-ua-
8B-/	-mi-	8b-\	-mi-
=91-	=91-	=91-	=91-
2f\	-ni	2a\	-ni
2r	.	2dd\	por-
=92-	=92-	=92-	=92-
1r	.	4cc\	-te
!	!	!	!LO:MO:mod=ae-
.	.	4b-\	e-
.	.	4b-\	-ter-
.	.	4a\	-na-
=93-	=93-	=93-	=93-
2r	.	2b-\,<	-les
2g\	Por-	2b-\	por-
=94-	=94-	=94-	=94-
2c/	-tae	2cc\	-te
!	!	!	!LO:MO:mod=ae-
2g\	ae-	2b-\	e-
=95-	=95-	=95-	=95-
2.d\	-ter-	2.dd\	-ter-
*	*	*custos:bn	*
4d\	-na-	4dd\	-na-
=96-	=96-	=96-	=96-
!	!	!LO:LB:g=original	!
!	!	!LO:TX:t=P:problem=# below	!
!	!	!LO:N:acc=#	!
1g\	-les	1bn\	-les,
=97-	=97-	=97-	=97-
0r	.	0r	.
=98-	=98-	=98-	=98-
.	.	.	.
=99-	=99-	=99-	=99-
1r	.	1r	.
=100-	=100-	=100-	=100-
2r	.	2r	.
2g\	et	2dd\	et
=101-	=101-	=101-	=101-
4c/	e-	4cc\	e-
4f\	-le-	4cc\	-le-
4.B-/	-ua-	4.b-\	-ua-
8B-/	-mi-	8b-\	-mi-
=102-	=102-	=102-	=102-
4f\	-ni	4cc\	-ni
4B-/	po-	4dd\	por-
4e-X\	-rate	4b-\	-te
!	!	!	!LO:MO:mod=ae-
4B-/	ae-	4dd\	e-
=103-	=103-	=103-	=103-
2.f\	-ter-	2.cc\	-ter-
4f\	-na-	4cc\	-na-
=104-	=104-	=104-	=104-
2B-/	-les	2b-\	-les,
2r	.	2r	.
=105-	=105-	=105-	=105-
0r	.	0r	.
=106-	=106-	=106-	=106-
.	.	.	.
=107-	=107-	=107-	=107-
1r	.	1r	.
=108-	=108-	=108-	=108-
2r	.	2r	.
2B-/	et	2dd\	et
=109-	=109-	=109-	=109-
4B-/	e-	4dd\	e-
*custos:f	*	*	*
4B-/	-le-	4b-\	-le-
!LO:LB:g=original	!	!	!
4.f\	-ua-	4.cc\	-ua-
8f\	-mi-	8cc\	-mi-
=110-	=110-	=110-	=110-
4c/	-ni	4cc\	-ni
4g\	por-	4a\	por-
4c/	-tae	4cc\	-te
!	!	!	!LO:MO:mod=ae-
4g\	ae-	4b-\	e-
=111-	=111-	=111-	=111-
2.d\	-ter-	2.dd\	-ter-
*	*	*custos:bn	*
4d\	-na-	4dd\	-na-
=112-	=112-	=112-	=112-
!	!	!LO:LB:g=original	!
!	!	!LO:TX:t=P:problem=# below	!
!	!	!LO:N:acc=#	!
2g\	-les	2bn\	-les,
2r	.	2r	.
=113-	=113-	=113-	=113-
00r	.	00r	.
=114-	=114-	=114-	=114-
.	.	.	.
=115-	=115-	=115-	=115-
.	.	.	.
=116-	=116-	=116-	=116-
.	.	.	.
=117-	=117-	=117-	=117-
*	*	*lig	*
4c/	Rex	1cc\	Rex
4d\	.	.	.
4eny\	.	.	.
4f\	.	.	.
=118-	=118-	=118-	=118-
2.g\	glo-	1b-y\	.
8f\L	.	.	.
8e\J	.	.	.
*	*	*Xlig	*
=119-	=119-	=119-	=119-
2.d\	.	2.a\	glo-
4d\	-ri-	4a\	-ri-
=120-	=120-	=120-	=120-
!	!	!	!LO:MO:mod=ae-
1g\	-ae	1b-\	-e,
=121-	=121-	=121-	=121-
0r	.	0r	.
=122-	=122-	=122-	=122-
.	.	.	.
=123-	=123-	=123-	=123-
1r	.	1r	.
=124-	=124-	=124-	=124-
2r	.	2r	.
2.B-/	Do-	2.b-\	Do-
=125-	=125-	=125-	=125-
.	.	.	.
4B-/	-mi-	4b-\	-mi-
1f\	-nus	1cc\	-nus
=126-	=126-	=126-	=126-
.	.	.	.
2c/	uir-	2.cc\	vir-
=127-	=127-	=127-	=127-
1g\	-tu-	.	.
.	.	8b-\L	-tu-
.	.	8a\J	.
!	!	!LO:TX:t=P:problem=# below	!
!	!	!LO:N:acc=#	!
.	.	2bn\	-tum
=128-	=128-	=128-	=128-
*custos:c	*	*	*
2c/	-tum	2cc\	ip-
!LO:LB:g=original	!	!	!
1c\	ip-	1g\	-ſe
=129-	=129-	=129-	=129-
.	.	.	.
2f\	-ſe	4a\	.
.	.	4b-y\	.
=130-	=130-	=130-	=130-
2c/	eſt	2cc\	eſt
2g\	rex	2b-\	rex
=131-	=131-	=131-	=131-
2.d\	glo-	2.a\	glo-
4d\	-ri-	4a\	-ri-
=132-	=132-	=132-	=132-
*	*	*custos:cc	*
!	!	!LO:TX:t=P:problem=# below	!
!	!	!LO:N:acc=#	!
2g\	-ae	2bn\	-ae
!	!	!LO:LB:g=original	!
2r	.	2r	.
=133-	=133-	=133-	=133-
0r	.	0r	.
=134-	=134-	=134-	=134-
.	.	.	.
=135-	=135-	=135-	=135-
2r	.	2r	.
2.f\	Do-	2.cc\	Do-
=136-	=136-	=136-	=136-
.	.	.	.
4f\	-mi-	4cc\	-mi-
1c\	-nus	1cc\	-nus
=137-	=137-	=137-	=137-
.	.	.	.
2c/	Vir-	2.cc\	uir-
=138-	=138-	=138-	=138-
1g\	-tu-	.	.
.	.	8b-y\L	.
.	.	8a\J	.
!	!	!LO:TX:t=P:problem=# below	!
!	!	!LO:N:acc=#	!
.	.	2bn\	-tu-
=139-	=139-	=139-	=139-
2c/	-tum	2cc\,<	-tum
1f\	ip-	1cc\	ip-
=140-	=140-	=140-	=140-
.	.	.	.
2f\	-ſe	2a\	-se
=141-	=141-	=141-	=141-
2c/	eſt	2cc\	eſt
2g\	rex	2b-y\	rex
=142-	=142-	=142-	=142-
2.d\	glo-	2.a\	glo-
4d\	-ri-	4a\	-ri-
=143-	=143-	=143-	=143-
2g\	-ae	2b-\	-ae
1B-/	ip-	2r	.
=144-	=144-	=144-	=144-
.	.	0r	.
*custos:g	*	*	*
2f\	-ſe	.	.
=145-	=145-	=145-	=145-
!LO:LB:g=original	!	!	!
2g\	eſt	.	.
4d\	rex	.	.
4e\	.	.	.
=146-	=146-	=146-	=146-
2.f\	glo-	1r	.
4f\	-ri-	.	.
=147-	=147-	=147-	=147-
2B-/	-ae	2r	.
2r	.	1dd\	ip-
=148-	=148-	=148-	=148-
0r	.	.	.
.	.	2dd\	-ſe
=149-	=149-	=149-	=149-
.	.	2cc\	eſt
.	.	2.b-\	rex
=150-	=150-	=150-	=150-
1r	.	.	.
.	.	8a\L	glo-
.	.	8g\J	.
*	*	*custos:b-	*
.	.	2a\	-ri-
=151-	=151-	=151-	=151-
!	!	!LO:LB:g=original	!
!	!	!	!LO:MO:mod=-ae
2r	.	2b-\	-e
1g\	ip-	1b-\	ip-
=152-	=152-	=152-	=152-
.	.	.	.
2g\	-ſe	2dd\	-ſe
=153-	=153-	=153-	=153-
2c/	eſt	2cc\	eſt
2g\	rex	2b-\,<	rex
=154-	=154-	=154-	=154-
2.d\	glo-	2.a\	glo-
4d\	-ri-	4a\	-ri-
!!linebreak:original
=155-	=155-	=155-	=155-
*M3/2	*	*M3/2	*
!	!	!LO:TX:t=P:problem=# below	!
!	!	!LO:N:acc=#	!
!	!	!	!LO:MO:mod=-ae
2g\	-ae	1bn\,<	-e
2g\	Al-	.	.
2c/	-le-	2r	.
=156-	=156-	=156-	=156-
1f\	-lu-	0.r	.
2d\	-ia	.	.
=157-	=157-	=157-	=157-
2e-X\	Al-	.	.
2B-/	-le-	.	.
2f\	-lu-	.	.
=158-	=158-	=158-	=158-
1B-/	-ia	2r	.
.	.	2dd\	Al-
2r	.	2cc\	-le-
=159-	=159-	=159-	=159-
0.r	.	2.a\	-lu-
.	.	4b-y\	.
.	.	2cc\,<	-ia,
=160-	=160-	=160-	=160-
.	.	2b-\	al-
.	.	2b-\	-le-
!	!	!LO:TX:t=P:problem=niewyraźne źródło	!
.	.	2a\	-lu-
=161-	=161-	=161-	=161-
*M2/2	*	*M2/2	*
*met(C|)	*	*met(C|)	*
*custos:g	*	*	*
2r	.	2a\	-ia,
!LO:LB:g=original	!	!	!
1g\	Al-	1b-\	al-
=162-	=162-	=162-	=162-
.	.	.	.
2g\	-le-	2dd\	-le-
=163-	=163-	=163-	=163-
4c/	.	1cc\	-lu-
4d\	.	.	.
4eny\	.	.	.
4f\	.	.	.
=164-	=164-	=164-	=164-
*	*	*custos:b-	*
2.g\	.	2b-\	-ia
!	!	!LO:PB:g=original	!
.	.	2b-\	Al-
8f\L	.	.	.
8e\J	.	.	.
=165-	=165-	=165-	=165-
1.d\	.	1.a\	-le-
=166-	=166-	=166-	=166-
.	.	.	.
2d\	-lu-	2a\	-lu-
=167-	=167-	=167-	=167-
!	!	!LO:TX:t=P:problem=# below	!
!	!	!LO:N:acc=#	!
2g\,<	-ia	2bn\,<	-ia,
2g\	Al-	2b\	al-
=168-	=168-	=168-	=168-
1.c\	-le-	1.cc\	-le-
=169-	=169-	=169-	=169-
.	.	.	.
2c/	-lu-	2cc\	-lu-
=170-	=170-	=170-	=170-
!	!	!LO:N:acc=#	!
1g\l	-ia	1bn\l	-ia,
==	==	==	==
*-	*-	*-	*-
!!!system-decoration: s1,s2
!!!RDF**kern: l = terminal long
!!!RDF**kern: < = below
!!!ENC: Anastazja Marusiak
!!!END: 2021-10-13
!!!EED: Andrzej Borzym
!!!EEV: 2021-10-20
!!!YEC: Copyright 2022 Narodowy Instytut Fryderyka Chopina (https://polishscores.org)
!!!YEM: License CC-BY-4.0 (https://creativecommons.org/licenses/by/4.0)
